X:1
T:Vella de vos son amoros
T:Mateo Flecha el Viejo (?)
T:Source : Cancionero de Uppsala : Villancicos---Venetia---G.Scotto---1556. Editor : André Vierendeels (09/04/17).
T:Notes : Original clefs  : C1, C1, C4 Editorial accidentals above the staff
T:Vella de vos son amoros
T:©
T:©
T:©
T:©
T:©
C:Mateo Flecha el Viejo (?)
Z:©
%%score [ 1 2 3 ]
L:1/8
Q:1/4=120
M:4/4
K:F
V:1 treble nm="Soprano 1" snm="S 1"
V:2 treble nm="Soprano 2" snm="S 2"
V:3 treble-8 nm="Tenor" snm="T"
V:1
 A4 A2 A2 | A4 B4 | G4 A4 | F8 | z2 F2 F2 F2 | F4 G4 | E4 F4 | D4 z2 C2 | D2 E2 F4- | F2 ED F2 E2 | %10
w: Vel- la de|vos so-|ma- mo-|ros,|vel- la de|vos so-|ma- mo-|ros, ya|fos- seu mi-||
 F8 | A4 A2 A2 | A4 B4 | G4 A4 | F4 A4 | G2 F2 F4- | F2 ED F2 E2 | F2 c2 c2 c2 | c8- | c4 d4 | %20
w: a|sem- pre so-|spir quant|pens en|vos la-|nit y- di-||a, sem- pre so-|spir|_ quant|
 B4 c4 | A4 c4 | B6 A2 | G8 | F2 A2 A2 A2 | A4 B4 | G4 A4 | F2 G2 A2 B2 | c4 c4 | z2 A2 A2 A2 | %30
w: pens en|vos la-|nit y|di-|a, sem- pre so-|spir quant|pens en|vos la- nit y-|di- a|sem- pre so-|
 A4 F4 | G4 E4 | F4 A4 | G2 F2 F4- | F2 ED F2 E2 | F4 c4 | B6 A2 | G8 | F8 |] %39
w: spir quant|pens en|vos la-|nit y- di-||a, la-|nit y-|di-|a.|
V:2
 z8 | z8 | z8 | A4 A2 A2 | A8- | A4 B4 | G4 A4 | F6 F2 | G4 A4 | B8 | A8 | c4 c2 c2 | c4 d4 | %13
w: |||Vel- la de|vos|_ son|a- mo-|ros, ya|fos- seu|mi-|a|sem- pre so-|spir quant|
 B4 c4 | A4 c4 | B6 A2 | G8 | F2 A2 A2 A2 | A8- | A4 B4 | G4 A4 | F4 A4 | G2 F2 F4- | F2 ED E4 | %24
w: pens en|vos la-|nit y-|di-|a, sem- pre so-|spir|_ quant|pens en|vos la-|nit y- di-||
 F8 | z2 D2 D2 D2 | _E2 E2 C2 C2 | D2 E2 F2 G2 | A8 | z2 c2 c2 c2 | c4 d4 | B4 c4 | A4 c4 | B6 A2 | %34
w: a,|sem- pre so-|spir quant pens en|vos, quant pens en|vos,|sem- pre so-|spir quant|pens en|vos la|nit y-|
 G8 | F4 A4 | G2 F2 F4- | F2 ED E4 | F8 |] %39
w: di-|a, la-|nit y- di-||a.|
V:3
 z4 d4 | d2 d2 d2 d2 | _e4 c4 | d8 | z2 d2 d2 d2 | d4 G4 | c4 F4 | B6 A2 | G4 F4 | G8 | F8 | %11
w: Vel-|la de vos so-|ma- mo-|ros,|vel- la de|vos so-|ma- mo-|ros, ya|fos- seu|mi-|a|
 f4 f2 f2 | f4 B4 |"^b" e4 c4 | d4 A4 | B6 F2 | c8 | F8 | z2 f2 f2 f2 | f4 B4 |"^b" e4 c4 | d4 A4 | %22
w: sem- pre so-|spir quant|pens en|vos la-|nit y|di-|a,|sem- pre so-|spir quant|pens en|vos la-|
 B6 F2 | c8 | F8 | z8 | z8 | z8 | z2 A2 A2 A2 | A8- | A4 B4 | G4 A4 | F4 z2 f2 | B4 B4 | c8 | %35
w: nit y-|di-|a,||||sem- pre so-|spir-|* quant|pens en|vos la-|nit y-|di-|
 d4 A4 | B6 F2 | c8 | F8 |] %39
w: a, la-|nit y|di-|a.|

